SVG_Azure_All/IoT Defender.svg

<?xml version="1.0" encoding="UTF-8" standalone="no"?>
<!-- Generated by Microsoft Visio, SVG Export IoT Defender.svg Page-1 -->

<svg
   xmlns:dc="http://purl.org/dc/elements/1.1/"
   xmlns:cc="http://creativecommons.org/ns#"
   xmlns:rdf="http://www.w3.org/1999/02/22-rdf-syntax-ns#"
   xmlns:svg="http://www.w3.org/2000/svg"
   xmlns="http://www.w3.org/2000/svg"
   xmlns:sodipodi="http://sodipodi.sourceforge.net/DTD/sodipodi-0.dtd"
   xmlns:inkscape="http://www.inkscape.org/namespaces/inkscape"
   width="0.62985879in"
   height="0.78748024in"
   viewBox="0 0 45.349977 56.698817"
   xml:space="preserve"
   class="st5"
   version="1.1"
   id="svg71"
   sodipodi:docname="IoT Defender.svg"
   style="font-size:12px;overflow:visible;color-interpolation-filters:sRGB;fill:none;fill-rule:evenodd;stroke-linecap:square;stroke-miterlimit:3"
   inkscape:version="0.92.5 (2060ec1f9f, 2020-04-08)"><metadata
   id="metadata75"><rdf:RDF><cc:Work
       rdf:about=""><dc:format>image/svg+xml</dc:format><dc:type
         rdf:resource="http://purl.org/dc/dcmitype/StillImage" /></cc:Work></rdf:RDF></metadata><sodipodi:namedview
   pagecolor="#ffffff"
   bordercolor="#666666"
   borderopacity="1"
   objecttolerance="10"
   gridtolerance="10"
   guidetolerance="10"
   inkscape:pageopacity="0"
   inkscape:pageshadow="2"
   inkscape:window-width="640"
   inkscape:window-height="480"
   id="namedview73"
   showgrid="false"
   inkscape:zoom="1.5724175"
   inkscape:cx="30.236185"
   inkscape:cy="29.693378"
   inkscape:window-x="0"
   inkscape:window-y="0"
   inkscape:window-maximized="0"
   inkscape:current-layer="svg71" />
	<style
   type="text/css"
   id="style2">
	<![CDATA[
		.st1 {fill:#32bedd;stroke:none;stroke-linecap:butt;stroke-width:21.8571}
		.st2 {fill:url(#grad0-8);stroke:none;stroke-linecap:butt;stroke-width:21.8571}
		.st3 {fill:#e6e6e6;stroke:none;stroke-linecap:butt;stroke-width:21.8571}
		.st4 {fill:#ffffff;stroke:none;stroke-linecap:butt;stroke-width:21.8571}
		.st5 {fill:none;fill-rule:evenodd;font-size:12px;overflow:visible;stroke-linecap:square;stroke-miterlimit:3}
	]]>
	</style>

	<defs
   id="Patterns_And_Gradients">
		<linearGradient
   id="grad0-8"
   x1="0"
   y1="54.251004"
   x2="46.539088"
   y2="54.251004"
   gradientTransform="scale(0.89537885,1.1168457)"
   gradientUnits="userSpaceOnUse">
			<stop
   offset="0.22"
   stop-color="#32d4f5"
   stop-opacity="1"
   id="stop4" />
			<stop
   offset="0.47"
   stop-color="#31d1f3"
   stop-opacity="1"
   id="stop6" />
			<stop
   offset="0.63"
   stop-color="#2ec9eb"
   stop-opacity="1"
   id="stop8" />
			<stop
   offset="0.77"
   stop-color="#29bade"
   stop-opacity="1"
   id="stop10" />
			<stop
   offset="0.89"
   stop-color="#22a5cb"
   stop-opacity="1"
   id="stop12" />
			<stop
   offset="1"
   stop-color="#198ab3"
   stop-opacity="1"
   id="stop14" />
		</linearGradient>
	</defs>
	<g
   id="g69"
   transform="translate(-21.8571,-21.8543)">
		<title
   id="title18">Page-1</title>
		<g
   id="group3945-1"
   transform="translate(21.8571,-34.0157)">
			<title
   id="title20">IoT Defender</title>
			<g
   id="group3946-2">
				<title
   id="title22">Sheet.3946</title>
				<g
   id="shape3947-3">
					<title
   id="title24">Sheet.3947</title>
					<path
   d="m 45.35,82.33 c 0,15.32 -18.06,27.52 -21.96,30.02 a 1.41925,1.44858 0 0 1 -1.5,0 C 17.96,109.85 0,97.65 0,82.33 V 64.06 a 1.43982,1.46957 0 0 1 1.4,-1.45 c 13.94,-0.46 10.72,-6.74 21.23,-6.74 10.51,0 7.3,6.3 21.33,6.68 A 1.43982,1.46957 0 0 1 45.35,64 Z"
   class="st1"
   id="path26"
   inkscape:connector-curvature="0"
   style="fill:#32bedd;stroke:none;stroke-width:21.85709953;stroke-linecap:butt" />
				</g>
				<g
   id="shape3948-5"
   transform="translate(1.78949,-2.36423)">
					<title
   id="title29">Sheet.3948</title>
					<path
   d="m 41.67,84.86 c 0,13.96 -16.45,25.19 -20.13,27.5 a 1.27527,1.30162 0 0 1 -1.38,0 C 16.56,110.07 0,98.82 0,84.86 v -16.8 a 1.31641,1.34361 0 0 1 1.28,-1.34 c 12.87,-0.3 9.91,-6.13 19.56,-6.13 9.64,0 6.68,5.83 19.56,6.11 a 1.29584,1.32262 0 0 1 1.27,1.34 z"
   class="st2"
   id="path31"
   inkscape:connector-curvature="0"
   style="fill:url(#grad0-8);stroke:none;stroke-width:21.85709953;stroke-linecap:butt" />
				</g>
				<g
   id="shape3949-9"
   transform="translate(10.9838,-21.2132)">
					<title
   id="title34">Sheet.3949</title>
					<path
   d="m 19.87,111.83 -5.57,-9.93 -0.56,0.29 0.45,-0.33 -6.31,-9.18 -1.15,0.84 5.61,8.13 L 0,102.7 v 1.47 l 12.34,-1.05 -4.11,6.91 1.21,0.75 4.11,-7.09 5.09,8.88 1.25,-0.72 z"
   class="st3"
   id="path36"
   inkscape:connector-curvature="0"
   style="fill:#e6e6e6;stroke:none;stroke-width:21.85709953;stroke-linecap:butt" />
				</g>
				<g
   id="group3950-11"
   transform="translate(8.7212,-18.7569)">
					<title
   id="title39">Sheet.3950</title>
					<g
   id="shape3951-12"
   transform="translate(12.691,-9.30031)">
						<title
   id="title41">Sheet.3951</title>
						<ellipse
   cx="3.2704501"
   cy="109.228"
   rx="3.2704501"
   ry="3.3380301"
   class="st4"
   id="ellipse43"
   style="fill:#ffffff;stroke:none;stroke-width:21.85709953;stroke-linecap:butt" />
					</g>
					<g
   id="shape3952-14"
   transform="translate(6.87,-18.9365)">
						<title
   id="title46">Sheet.3952</title>
						<ellipse
   cx="2.7767999"
   cy="109.732"
   rx="2.7767999"
   ry="2.8341801"
   class="st4"
   id="ellipse48"
   style="fill:#ffffff;stroke:none;stroke-width:21.85709953;stroke-linecap:butt" />
					</g>
					<g
   id="shape3953-16"
   transform="translate(0,-9.11136)">
						<title
   id="title51">Sheet.3953</title>
						<ellipse
   cx="2.2420101"
   cy="110.277"
   rx="2.2420101"
   ry="2.2883401"
   class="st4"
   id="ellipse53"
   style="fill:#ffffff;stroke:none;stroke-width:21.85709953;stroke-linecap:butt" />
					</g>
					<g
   id="shape3954-18"
   transform="translate(9.00916,-2.16237)">
						<title
   id="title56">Sheet.3954</title>
						<ellipse
   cx="2.2420101"
   cy="110.277"
   rx="2.2420101"
   ry="2.2883401"
   class="st4"
   id="ellipse58"
   style="fill:#ffffff;stroke:none;stroke-width:21.85709953;stroke-linecap:butt" />
					</g>
					<g
   id="shape3955-20"
   transform="translate(18.9439)">
						<title
   id="title61">Sheet.3955</title>
						<ellipse
   cx="2.59168"
   cy="109.921"
   rx="2.59168"
   ry="2.6452301"
   class="st4"
   id="ellipse63"
   style="fill:#ffffff;stroke:none;stroke-width:21.85709953;stroke-linecap:butt" />
					</g>
				</g>
			</g>
		</g>
	</g>
</svg>

<?xml version="1.0" encoding="UTF-8" standalone="no"?>
<!DOCTYPE svg PUBLIC "-//W3C//DTD SVG 1.1//EN" "http://www.w3.org/Graphics/SVG/1.1/DTD/svg11.dtd">
<!-- Generated by Microsoft Visio, SVG Export IoT Defender.svg Page-1 -->
<svg xmlns="http://www.w3.org/2000/svg" xmlns:xlink="http://www.w3.org/1999/xlink" xmlns:ev="http://www.w3.org/2001/xml-events"
		width="1.23706in" height="1.56341in" viewBox="0 0 89.0686 112.566" xml:space="preserve" color-interpolation-filters="sRGB"
		class="st5">
	<style type="text/css">
	<![CDATA[
		.st1 {fill:#32bedd;stroke:none;stroke-linecap:butt;stroke-width:21.8571}
		.st2 {fill:url(#grad0-8);stroke:none;stroke-linecap:butt;stroke-width:21.8571}
		.st3 {fill:#e6e6e6;stroke:none;stroke-linecap:butt;stroke-width:21.8571}
		.st4 {fill:#ffffff;stroke:none;stroke-linecap:butt;stroke-width:21.8571}
		.st5 {fill:none;fill-rule:evenodd;font-size:12px;overflow:visible;stroke-linecap:square;stroke-miterlimit:3}
	]]>
	</style>

	<defs id="Patterns_And_Gradients">
		<linearGradient id="grad0-8" x1="0" y1="0" x2="1" y2="0" gradientTransform="rotate(90 0.5 0.5)">
			<stop offset="0.22" stop-color="#32d4f5" stop-opacity="1"/>
			<stop offset="0.47" stop-color="#31d1f3" stop-opacity="1"/>
			<stop offset="0.63" stop-color="#2ec9eb" stop-opacity="1"/>
			<stop offset="0.77" stop-color="#29bade" stop-opacity="1"/>
			<stop offset="0.89" stop-color="#22a5cb" stop-opacity="1"/>
			<stop offset="1" stop-color="#198ab3" stop-opacity="1"/>
		</linearGradient>
	</defs>
	<g>
		<title>Page-1</title>
		<g id="group3861-1" transform="translate(21.8571,-34.0157)">
			<title>IoT Defender</title>
			<g id="group3862-2">
				<title>Sheet.3862</title>
				<g id="shape3863-3">
					<title>Sheet.3863</title>
					<path d="M45.35 82.33 C45.35 97.65 27.29 109.85 23.39 112.35 A1.41925 1.44858 0 0 1 21.89 112.35 C17.96 109.85
								 0 97.65 0 82.33 L0 64.06 A1.43982 1.46957 0 0 1 1.4 62.61 C15.34 62.15 12.12 55.87 22.63 55.87 C33.14
								 55.87 29.93 62.17 43.96 62.55 A1.43982 1.46957 0 0 1 45.35 64 L45.35 82.33 Z" class="st1"/>
				</g>
				<g id="shape3864-5" transform="translate(1.78949,-2.36423)">
					<title>Sheet.3864</title>
					<path d="M41.67 84.86 C41.67 98.82 25.22 110.05 21.54 112.36 A1.27527 1.30162 0 0 1 20.16 112.36 C16.56 110.07
								 0 98.82 0 84.86 L0 68.06 A1.31641 1.34361 0 0 1 1.28 66.72 C14.15 66.42 11.19 60.59 20.84 60.59
								 C30.48 60.59 27.52 66.42 40.4 66.7 A1.29584 1.32262 0 0 1 41.67 68.04 L41.67 84.86 Z" class="st2"/>
				</g>
				<g id="shape3865-9" transform="translate(10.9838,-21.2132)">
					<title>Sheet.3865</title>
					<path d="M19.87 111.83 L14.3 101.9 L13.74 102.19 L14.19 101.86 L7.88 92.68 L6.73 93.52 L12.34 101.65 L0 102.7
								 L0 104.17 L12.34 103.12 L8.23 110.03 L9.44 110.78 L13.55 103.69 L18.64 112.57 L19.89 111.85 L19.87
								 111.83 Z" class="st3"/>
				</g>
				<g id="group3866-11" transform="translate(8.7212,-18.7569)">
					<title>Sheet.3866</title>
					<g id="shape3867-12" transform="translate(12.691,-9.30031)">
						<title>Sheet.3867</title>
						<ellipse cx="3.27045" cy="109.228" rx="3.27045" ry="3.33803" class="st4"/>
					</g>
					<g id="shape3868-14" transform="translate(6.87,-18.9365)">
						<title>Sheet.3868</title>
						<ellipse cx="2.7768" cy="109.732" rx="2.7768" ry="2.83418" class="st4"/>
					</g>
					<g id="shape3869-16" transform="translate(-4.89608E-14,-9.11136)">
						<title>Sheet.3869</title>
						<ellipse cx="2.24201" cy="110.277" rx="2.24201" ry="2.28834" class="st4"/>
					</g>
					<g id="shape3870-18" transform="translate(9.00916,-2.16237)">
						<title>Sheet.3870</title>
						<ellipse cx="2.24201" cy="110.277" rx="2.24201" ry="2.28834" class="st4"/>
					</g>
					<g id="shape3871-20" transform="translate(18.9439,0)">
						<title>Sheet.3871</title>
						<ellipse cx="2.59168" cy="109.921" rx="2.59168" ry="2.64523" class="st4"/>
					</g>
				</g>
			</g>
		</g>
	</g>
</svg>
